!!!!SEGMENT: pl-wn--mus-iii-82-506_zelenski-wladyslaw--oda-do-mlodosci-op-51.krn
!!!cenid: 18xx:3728
!!!COM: Żeleński, Władysław
!!!COM-rismID: pe41024455
!!!CDT: 1837/07/06-1921/01/23
!!!CNT: Polish
!!!OTL: Oda do młodości op. 51
!!!PDT:
!!!AGN:
!!!YEC: Copyright 2022 Narodowy Instytut Fryderyka Chopina (https://polishscores.org)
!!!YEM: License CC-BY-4.0 (https://creativecommons.org/licenses/by/4.0)
!!!SMS-siglum: PL-Wn
!!!SMS-shelfmark: Mus.III.82.506
!!!SMS-shelfwork: W
!!!SMS-variant:
!!!SMS-altvar:
!!!NIFC-rismSourceID:
!!!NIFC-rismChildID:
!!!NIFC-islandoraID: none
!!!URL-pdf-islandora:
!!!URL-scan: https://polona2.pl/item/oda-do-mlodosci-marsz-uroczysty-na-fortepian-op-51,NzI0NjYwMTk/0 @EN{Scan on Polona} @PL{Skany w portalu Polona}
!!!IIIF: https://polona2.pl/iiif/item/NzI0NjYwMTk/manifest.json
!!!ONB-nifc:
!!!OMD: Tempo di marcia moderato.
!!!AIN: 1 piano
!!!key: F
**kern	**kern	**dynam
*part1	*part1	*
*staff2	*staff1	*
*I"PIANO.	*I"PIANO.	*
*Ipiano	*Ipiano	*
*ICklav	*ICklav	*
*clefF4	*clefG2	*
*k[b-]	*k[b-]	*
*F:	*F:	*
*M4/4	*M4/4	*
*met(c)	*met(c)	*
*>[A,B,B,C]	*>[A,B,B,C]	*
*>A	*>A	*
4r	8.A/L 8.a	mf
.	16A/Jk 16a	.
=1	=1	=1
*xywh-#3:217,215,2533,1005	*xywh-#3:217,215,2533,1005	*
1r	2.A/ 2.a	.
!	!LO:TUP:b	!
.	12A/L 12a	.
.	12A/ 12a	.
.	12A/J 12a	.
=2	=2	=2
2r	2.A/ 2.a	.
4r	.	.
4AAA'/ 4AA	4A'/ 4c#X 4e	p
=3	=3	=3
2.DD/ 2.D	2.A/ 2.d 2.f	.
4AAA'/ 4AA	4A'/ 4cn 4e	.
=4	=4	=4
4BBB-'/ 4BB-	4F'/ 4B- 4d	.
(>2AAA^/ 2AA	(>2F^/ 2c	.
8.GG#X/L)	8.F/L) 8.Bn	.
16BB-/Jk	16F/Jk 16d	.
=5	=5	=5
*^	*^	*
*	*xywh-#3:217,215,2533,1005	*xywh-#3:217,215,2533,1005	*	*
4r	2AA\	(2c/	(2F\	<
*Xtuplet	*	*	*	*
12C/L	.	.	.	.
12C/	.	.	.	.
12C/J	.	.	.	.
[2C/	(2FFT\	4.e/	(2A-X\)	[
.	.	8d/	.	.
.	16qqEE\LL	.	.	.
.	16qqFF\JJ	.	.	.
!!LO:LB:g=original
=6	=6	=6	=6	=6
*xywh-#3:238,1179,2485,492	*xywh-#3:238,1179,2485,492	*xywh-#3:238,1179,2485,492	*xywh-#3:238,1179,2485,492	*
4C/]	2.EE\)	2.c/)	2.G\)	>
12C/L	.	.	.	.
12C/	.	.	.	.
12C/J	.	.	.	.
[2C/	.	.	.	]
.	(4BB-\	8.c/L	4E\	p
.	.	16c/Jk	.	.
*	*	*v	*v	*
=7	=7	=7	=7
4C/]	(2AA\)	[2F/ [2c	]
8.C/L	.	.	.
16C/Jk	.	.	.
[2C/	4AA-X\	(<4F/] 4c_< 4d	.
.	8.GG\L)	8.B-/L) 8.c] 8.e	.
.	16FF\Jk	16A/Jk 16c 16f	.
=8	=8	=8	=8
*	*	*^	*
*	*	*	*xywh-#3:238,1179,2485,492	*
4C/]	2.EE\	4G/ 4c 4g	2.ryy	.
12C/L	.	2G/ 2c^	.	.
12C/	.	.	.	.
12C/J	.	.	.	.
[2C/	.	.	.	.
.	[4BB-\	8.c/L	4E\	.
.	.	16c/Jk	.	.
=9	=9	=9	=9	=9
(2.C/]	4BB-\]	4.d/	(2F\	<
.	(4AA\	.	.	.
.	.	(8d/	.	.
.	8.GG\L	4e/	4G\	.
.	16BB-\K	.	.	.
8.E-X/L)	8.AA\)	8.f#X/L)	8.c\L)	.
16E-/J	16GG\Jk	16g/Jk	16c\Jk	.
*	*	*v	*v	*
!!LO:LB:g=original
=10	=10	=10	=10
*xywh-#3:258,1671,2464,513	*xywh-#3:258,1671,2464,513	*xywh-#3:258,1671,2464,513	*
4D/	4FF#X\	4c/ 4a	.
12D/L	4r	2c/ 2d	.
12D/	.	.	.
12D/J	.	.	.
4D/	4r	.	.
(4FF#/ [4D	4ryy	(>4A/ 4c 4d	.
*v	*v	*	*
=11	=11	=11
*	*^	*
*	*	*xywh-#3:258,1671,2464,513	*
*	*	*^	*
*	*	*	*xywh-#3:258,1671,2464,513	*
4GG/) 4D]	4B-/ 4d 4b-)	4ryy	4ryy	.
2AAA^/ 2AA	2a^/	2c#X\	[<2.A\	.
8.BBBn/L 8.BBn	4g/	8.d\L	.	.
16CC#X/Jk 16C#X	.	16e\Jk	.	.
*	*	*v	*v	*
=12	=12	=12	=12
*^	*	*	*
*	*xywh-#3:258,1671,2464,513	*	*	*
4DD/ 4D	4ryy	4A/] 4d 4f	4ryy	.
[2.E/	2EE\	2G#X/ 2e	2ryy	<
.	(8.FF#X\L	(4d/	8.A\L	[
.	16GG#X\Jk	.	16Bn\Jk	.
=13	=13	=13	=13	=13
4E/]	4AA\)	[4c#X/)	4A\	.
*	*	*Xtuplet	*	*
!	!	!LO:TX:b:i:t=espress.	!	!
(4FF/ (4F	4ryy	12c#/L]	(4A\	.
.	.	(12Bn/	.	.
.	.	12c#/J	.	.
4EE/) 4E)	4ryy	[2e/)	4G#X\)	.
8.F#X/L	[<4EEE\ [<4EE	.	4d\	>
16A/Jk	.	.	.	.
!!LO:LB:g=original
=14	=14	=14	=14	=14
*	*^	*	*	*
*xywh-#3:272,2115,2429,554	*xywh-#3:272,2115,2429,554	*xywh-#3:272,2115,2429,554	*xywh-#3:272,2115,2429,554	*	*
2G#X/	4EEE\] 4EE]	4ryy	2e/]	(4.c#X\	]
.	(4D/	4EE\ 4E	.	.	.
.	.	.	.	8Bn\	.
8C#X/)	8AAA\ 8AA	2ryy	8e/	8A\)	.
8r	8ryy	.	8r	4.ryy	.
4AA'\ 4A	4ryy	.	4e'/ 4a 4cc#X 4ee	.	mf
*v	*v	*v	*	*	*
*	*v	*v	*
=15	=15	=15
2.DD/ 2.D	2.f\ 2.a 2.dd 2.ff	.
4AAA'</ 4AA	4e'/ 4a 4ccn 4ee	.
=16	=16	=16
4BBB-'>/ 4BB-	4d'/ 4f 4b- 4dd	.
((2AAA^>/ 2AA	((2c^/ 2f 2cc	.
8.GGG#X/L)) 8.GG#X	8.Bn/L)) 8.f 8.bn	.
16BBB-/Jk 16BB-	16d/Jk 16f 16dd	.
=17	=17	=17
*^	*^	*
*	*xywh-#3:272,2115,2429,554	*xywh-#3:272,2115,2429,554	*	*
4AAA/ 4AA	2ryy	2c/ 2f 2cc	2ryy	.
12C/L	.	.	.	.
12C/	.	.	.	.
12C/J	.	.	.	.
[2BB-/	(2FFT\	(>(<2d/ 2dd	(>2a-XT\	<
.	16qqEE-X\LL	16qqg\LL	.	.
.	16qqFF\JJ	16qqa-\JJ	.	.
=18	=18	=18	=18	=18
4BB-/]	4EE-X\)	4e-X/)) 4ee-X	4g/)	.
(>8.G/L	2E-X^<\	(<8.b-\L	2d-X^>/ 2dd-X	[
16A-X/Jk	.	16a-X\Jk	.	.
4B-/)	.	4g\)	.	.
4EEn'/ 4En	4ryy	8.a-\L	[<4c/ [>4cc	.
.	.	16b-\Jk	.	.
*	*	*v	*v	*
!!LO:LB:g=original
=19	=19	=19	=19
*xywh-#3:241,2545,2461,565	*xywh-#3:241,2545,2461,565	*xywh-#3:241,2545,2461,565	*
4FF/ 4F	4ryy	4c/] 4a-X 4cc]	.
!	!	!LO:TX:b:t=cresc._ _ _:ext=ud:problem=dynamics with extention lines	!LO:HP:t=cresc._ _ _:ext=ud
[2C/	(2AA-X\	(>4c/ 4f [<4cc	<
.	.	4d/ 4cc] 4dd	.
8.C/L]	8.GG\L)	8.e/L) 8.cc 8.ee	.
16C/Jk	16FF\Jk	16f/Jk 16cc 16ff	.
=20	=20	=20	=20
*	*	*^	*
*	*	*	*xywh-#3:241,2545,2461,565	*
4EE/ 4C	4ryy	4g\ 4cc 4gg	4ryy	.
(>8.G/L	2E^<\	(>(<2d-X^>/ 2dd-X	(8.b-\L	.
16A-X/Jk	.	.	16a-X\Jk	.
4B-/)	.	.	4g\)	.
4EE-X/ 4E-X	4ryy	8.c#X/L)) 8.g 8.b- 8.cc#X	4ryy	.
.	.	16c#/Jk 16g 16b- 16cc#	.	.
*v	*v	*	*	*
*	*v	*v	*
=21	=21	=21
4.DD/ 4.D	4d/ 4g 4b- 4dd	.
.	4d/ 4g 4b- 4dd	.
8CC/ 8C	.	.
4BBB-/ 4BB-	4e/ 4g 4cc 4ee	[ <
8.AAA/L 8.AA	8.f#X\L 8.cc 8.ee-X 8.ff#X	.
16GGG/Jk 16GG	16g\Jk 16cc 16ee- 16gg	[[
=22	=22	=22
*^	*^	*
*	*xywh-#3:241,2545,2461,565	*xywh-#3:241,2545,2461,565	*	*
4FFF#X/ 4FF#X	4ryy	4a\ 4cc 4ee-X 4aa	4ryy	.
(8.A/L	2F#X\	[>2e-X^>/ [>2ee-X	(<8.cc\L	.
16B-/Jk	.	.	16b-\Jk	.
4c/)	.	.	4a\)	.
4FFF#/ 4FF#	4ryy	8.e-/L] 8.cc 8.ee-]	4ryy	.
.	.	16cc/Jk 16ee- 16ccc	.	.
!!LO:LB:g=original
=23	=23	=23	=23	=23
*xywh-#3:238,3054,2481,585	*xywh-#3:238,3054,2481,585	*xywh-#3:238,3054,2481,585	*xywh-#3:238,3054,2481,585	*
4GGG/ 4GG	4ryy	4b-\ 4dd 4bb-	4ryy	.
12e~>/L	2A\	2a\ 2cc#X^ 2aa	2ryy	.
12f~>/	.	.	.	.
12g~>/J	.	.	.	.
4f/	.	.	.	.
12AAA~</L 12AA	4ryy	(4g/ 4gg	12cc#~>\L	.
12BBBn~</ 12BBn	.	.	12dd~>\	.
12CC#X~</J 12C#X	.	.	12ee~>\J	.
=24	=24	=24	=24	=24
4DD/ 4D	4ryy	4f\) 4dd 4ff	2.ryy	.
12Bn~>/L	2E\	2e^</ 2g#X 2ee	.	.
12c~>/	.	.	.	.
12d~>/J	.	.	.	.
4c/	.	.	.	.
12BBBn~</L 12BBn	4ryy	(4g#/ 4dd	12d~<\L	.
12CC~</ 12C	.	.	12c~<\	.
12DD~</J 12D	.	.	12Bn~<\J	.
*v	*v	*	*	*
=25	=25	=25	=25
4EE-X/ 4E-X	(>[>4cc/)	(<(<4c\ 4a	<
*tuplet	*Xtuplet	*tuplet	*
!LO:TUP:b:problem=klamra łukowa	!LO:TUP:b:problem=klamra łukowa	!	!
6DD/ 6D	12cc/L]	(6d\)) 6f#X	.
.	12b-/)	.	.
12CC/ 12C	12a/J	12e-X\) 12f#	.
4BBB-/ 4BB-	4d/ 4g 4dd	2ryy	[
4GGG/ 4GG	8.B-/L 8.d	.	.
.	16d/Jk 16g 16b-	.	.
=	=	=	=
*	*	*^	*
*	*	*	*xywh-#3:238,3054,2481,585	*
4CC/ 4C	(>4.c/ 4.a	2e\	4ryy	.
4CCC/ 4CC	.	.	4B-\	.
.	8g/	.	.	.
4FFF/ 4FF	4A/) 4c 4f	4ryy	4ryy	.
*	*v	*v	*v	*
!!LO:PB:g=original
=26!|:	=26!|:	=26!|:
*>B	*>B	*
*xywh-#4:392,281,2482,578	*xywh-#4:392,281,2482,578	*
4r	8.A/L 8.a	p
.	16A/Jk 16a	.
=27	=27	=27
*^	*	*
*	*xywh-#4:392,281,2482,578	*	*
8.r	4ryy	[2A/ [2a	.
(<16E/KL	.	.	.
8.AA/)	[<2.AA\	.	.
(<16BBn/Jk	.	.	.
(>4C#X/)	.	8A/L] 8a]	.
.	.	16r	.
.	.	(>16bb-/K	.
4D/	.	8.ff/)	<
.	.	(>16aa/Jk	.
=28	=28	=28	=28
*	*	*^	*
*	*	*	*xywh-#4:392,281,2482,578	*
4E/	2.AA\]	4gg/)	8.r	.
.	.	.	(<16ee\KL	.
4G/	.	(>8.ff/L	8.bn\	.
.	.	16ee/Jk	16cc#X\Jk	.
4F/)	.	[4dd/)	8dd\L)	[
.	.	.	16r	.
.	.	.	(<16f\K	.
(4F#X/	(4AA-X\	8dd/]	8.c\)	.
.	.	8r	.	.
.	.	.	(<16d\Jk	.
*	*	*v	*v	*
=29	=29	=29	=29
8G/)	8GG\)	8Bn/)	.
16r	8ryy	8r	.
(<16D/KL	.	.	.
8.GG/)	[2.GG\	[<4G^>/ [>4g	p
(<16AA/Jk	.	.	.
4BBn/)	.	8G/L] 8g]	.
.	.	16r	.
.	.	(<16aa-X/K	.
(>4C/	.	8.ee-X/)	.
.	.	(>16gg/Jk	.
!!LO:LB:g=original
=30	=30	=30	=30
*	*	*^	*
*xywh-#4:383,859,2492,562	*xywh-#4:383,859,2492,562	*xywh-#4:383,859,2492,562	*xywh-#4:383,859,2492,562	*
4D/	2.GG\]	(4ff/)	8.r	.
.	.	.	(16dd\KL	.
4F/	.	8.ee-X/L	8.a\	<
.	.	16dd/Jk	16bn\Jk	.
4E-X/)	.	[4cc/)	8cc\L)	.
.	.	.	16r	.
.	.	.	(16e-X\K	.
(>4En/	(<4GG-X\	8cc/]	8.B-X\)	[
.	.	8r	.	.
.	.	.	(16c\Jk	.
*	*	*v	*v	*
=31	=31	=31	=31
8F/L)	8FF\)	8A/)	.
16r	8ryy	8r	.
(<16C/K	.	.	.
!	!	!LO:TX:b:t=cresc._ _ _:ext=ud:problem=dynamics with extention lines	!LO:HP:t=cresc._ _ _:ext=ud
8.FF/)	(<2FF\	[4F^>/ [4f	<
(<16GG/Jk	.	.	.
4AA/)	.	8F/L] 8f]	.
.	.	16r	.
.	.	(<16g-X/K 16gg-X	.
(4BB-/	(<4EE\)	8.dd-X/)	.
.	.	16g-/Jk 16gg-	.
=32	=32	=32	=32
(2BBn/)	(<4DD#X\)	8g-X/L 8gg-X	.
.	.	16r	.
.	.	(<16Bn/K	.
.	4DDn\	8.F#X/)	.
.	.	(<16G#X/Jk	.
4C#X/)	4CC#X\)	8An/L)	.
.	.	16r	.
.	.	(<16a/K 16aa	.
[4BBB#X/ [4BB#X/	4ryy	8.dd#X/)	.
.	.	16a/Jk 16aa	.
*v	*v	*	*
!!LO:LB:g=original
=33	=33	=33
*	*^	*
*xywh-#4:383,1422,2492,584	*xywh-#4:383,1422,2492,584	*xywh-#4:383,1422,2492,584	*
4BBB#X/] 4BB#X]	8a/ 8aa	8a\L	.
.	2.ryy	16r	.
.	.	(16g#X\K	.
((4BBBn/ 4BBn	.	8.d#X\)	[
.	.	(16e#X\Jk	<
4AAA#X/)) 4AA#X	.	8f#X\L)	.
.	.	16r	.
.	.	(16cc#X\K 16ccc#X	.
4AAAn'/ 4AAn	.	8.ff#X\)	.
.	8ryy	.	[[
.	.	16ff#\Jk 16ccc# 16fff#X	.
=34	=34	=34	=34
[4GGG#X/ [4GG#X	4bbn\ 4ff#X 4fff#X	4ryy	ff
*Xtuplet	*	*	*
12GGG#/L] 12GG#]	(8.ee\L 8.eee	4gg#X/	.
12AAA/ 12AA	.	.	.
12BBBn/J 12BBn	.	.	.
.	16dd\Jk 16ddd	.	.
4CC#X/ 4C#X	4ee#X\) 4cc#X 4ccc#X	2ryy	.
8.DD#X/L 8.D#X	4cc#\ 4bn 4bb	.	.
16EE#X/Jk 16E#X	.	.	.
=35	=35	=35	=35
4FF#X/ 4F#X	(>[<4a\ [>4aa	4cc#X\	.
*	*Xtuplet	*	*
((2BBBn/ 2BBn	12a\L] 12aa]	4dd/	.
.	12e#X\) (<12ee#X	.	>
.	12f#X'\J 12ff#X	.	.
.	[4dd\) (4g#X\ 4gg#X	2ryy	.
4BBB#X/)) 4BB#X	8.f#/L) 8.dd] 8.ff#	.	.
.	16d/Jk 16f# 16dd	.	]
!!LO:LB:g=original
=36	=36	=36	=36
*^	*	*	*
*	*^	*	*	*
*xywh-#4:313,2006,2561,517	*xywh-#4:313,2006,2561,517	*xywh-#4:313,2006,2561,517	*xywh-#4:313,2006,2561,517	*xywh-#4:313,2006,2561,517	*
4r	1C#X	8CC#X\	[1cc#X	4c#X\ 4a	.
.	.	2.ryy	.	.	.
(8.G#X\L	.	.	.	(8.e\L	p
16Bn\Jk	.	.	.	16d\Jk	.
4A\)	.	.	.	4c#\)	.
(8.D#X\L	.	.	.	(8.B-\L	.
.	.	8ryy	.	.	.
16E#X\Jk	.	.	.	16G#X\Jk	.
*	*v	*v	*	*	*
=37	=37	=37	=37	=37
8FF#X/L) 8F#X	4ryy	8cc#/]	8A\)	.
!	!	!	!	!LO:DY:b=2
16r	.	8r	2.ryy	p
(<16C#X/K	.	.	.	.
8.FF#X/)	[<2.FF#\	4r	.	.
(<16GG#X/Jk	.	.	.	.
[2AA/)	.	4r	.	.
*	*	*clefF4	*	*
.	.	((4C#X\ 4E#X	.	p
.	.	.	8ryy	.
*	*	*v	*v	*
=38	=38	=38	=38
8AA/L]	1FF#_	8D\)) 8F#X	.
16r	.	8r	.
(<16F#X/K	.	.	.
*	*	*clefG2	*
8.AAn/	.	(4d/ 4f#X	<
16BBn/Jk	.	.	.
4C#X/)	.	4c#X/ 4e	.
(>8.D/L	.	4Bn/ 4d	[
16E/Jk	.	.	.
=39	=39	=39	=39
8FF#/]) 8F#X	4ryy	8A/) 8c#X	.
16r	.	8r	.
(<16C#X/KL	.	.	.
8.FF#X/)	[<2.FF#\	4r	.
(<16GG#X/Jk	.	.	.
[>2AA/)	.	4r	.
.	.	(>(<4E#X/ 4c# 4e#X	.
!!LO:LB:g=original
=40	=40	=40	=40
*xywh-#4:313,2524,2574,508	*xywh-#4:313,2524,2574,508	*xywh-#4:313,2524,2574,508	*
8AA/L]	1FF#X_	8F#X/)) 8d 8f#X	.
16r	.	8r	.
(16F#X/Jk	.	.	.
8.AA/L	.	(4f#\ 4dd 4ff#X	<
16BBn/Jk	.	.	.
4C#X/	.	4e/ 4cc#X 4ee	.
8.D/L	.	4d/ 4bn 4dd	[[
16E/Jk	.	.	.
*v	*v	*	*
=41	=41	=41
*	*^	*
*	*	*xywh-#4:313,2524,2574,508	*
8FF#X/]) 8F#X	8c#X/) 8a 8cc#X	2ryy	.
16r	8r	.	<
(<16C#X/KL	.	.	.
8.FF#X/)	4r	.	.
(<16GG#X/Jk	.	.	.
[<2AA\)	2r	8.r<	[
!	!LO:TX:b:i:t=m.d.	!	!
.	.	(<16A</KL	<
.	.	8.C#X</)	.
.	.	N(>16D#X</Jk	.
=42	=42	=42	=42
*^	*	*	*
*	*xywh-#4:313,2524,2574,508	*	*	*
!LO:TX:a:i:t=m.g.	!	!	!	!
[2E#X/N)	2AA\_	8.r	4ryy	.
.	.	(16a/KL	.	.
.	.	8.A/)	[4A\	<
.	.	(16Bn/Jk	.	.
8E#/]	8AA\]	8A/]) 8c#X	2ryy	[
8r	4.ryy	8r	.	.
4AAA'/ 4AA	.	4en'/ 4a 4cc#X 4een	.	f
*v	*v	*	*	*
*	*v	*v	*
!!LO:LB:g=original
=43	=43	=43
*xywh-#4:319,3032,2568,572	*xywh-#4:319,3032,2568,572	*
2.DD/ 2.D	2.f\ 2.a 2.dd 2.ff	.
4AAA'/ 4AA	4e'/ 4a 4ccn 4ee	.
=44	=44	=44
4BBB-'/ 4BB-	4d'/ 4f 4b-X 4dd	.
((2AAA/ 2AA	2c/ 2f 2cc	.
8.GGG#X/L)) 8.GG#X	8.Bn/L 8.d 8.bn	.
16BBB-/Jk 16BB-	16d/Jk 16f 16dd	.
=45	=45	=45
*^	*^	*
*	*xywh-#4:319,3032,2568,572	*xywh-#4:319,3032,2568,572	*	*
4AAA/ 4AA	2ryy	2f/ 2cc	4c\	.
12C/L	.	.	12c\L	.
12C/	.	.	12c\	<
12C/J	.	.	12c\J	.
4C/	2FF\	4.e/ 4.ee	2a-X\ 2bn	.
12C/L	.	.	.	.
12C/	.	.	.	[
.	.	8d/ 8dd	.	.
12C/J	.	.	.	.
=46	=46	=46	=46	=46
4C/	4EE\	2g/ 2cc	4c\	.
12C/L	2ryy	.	12c\L	.
12C/	.	.	12c\	.
12C/J	.	.	12c\J	.
[>4C/	.	4c\	2ryy	.
8.C/L]	(<4BB-\	4c/ 4g 4cc	.	.
16C/Jk	.	.	.	.
!!LO:PB:g=original
=47	=47	=47	=47	=47
*xywh-#5:229,361,2474,546	*xywh-#5:229,361,2474,546	*xywh-#5:229,361,2474,546	*xywh-#5:229,361,2474,546	*
4C/	2AA\)	(2f/ 2cc	4c\	.
8.C/L	.	.	8.c\L	.
16C/Jk	.	.	16c\Jk	.
[4C/	4AA-X\	4d/ 4cc 4dd	2ryy	.
8.C/L]	8.GG\L	8.e/L) 8.cc 8.ee	.	.
16C/Jk	16FF\Jk	16f/Jk 16cc 16ff	.	.
=48	=48	=48	=48	=48
4EE/ 4C 4E	4ryy	4g\ 4cc 4gg	4ryy	.
2E^\ 2G	2ryy	2g^/ 2cc	12c\L	.
.	.	.	12c\	.
.	.	.	12c\J	.
.	.	.	4c\	.
[4C/	[4BB-\	8.c/L 8.e 8.cc	4ryy	.
.	.	16c/Jk 16e 16cc	.	.
*	*	*v	*v	*
=49	=49	=49	=49
4C/]	2.BB-\]	(2d/ 2f 2dd	<
12C/L	.	.	.
12C/	.	.	.
12C/J	.	.	.
[4C/	.	4e/ 4cc 4ee	.
8.C/L]	8.AA\L	8.f#X\L) 8.cc 8.ee-X 8.ff#X	[
16C/Jk	16GG\Jk	16g\Jk 16cc 16ee- 16gg	.
*v	*v	*	*
=50	=50	=50
4FF#X/ 4C	4a\ 4cc 4ee-X 4aa	.
12F#X\L 12A 12c	2d^>/ 2a 2cc 2dd	.
12F#\ 12A 12c	.	.
12F#\J 12A 12c	.	.
4F#\ 4A 4c	.	.
4FFF#X/ 4FF#	8.d\L 8.cc 8.dd	ff
.	16cc\Jk 16dd 16ccc	.
!!LO:LB:g=original
=51	=51	=51
*^	*^	*
*xywh-#5:226,855,2489,588	*xywh-#5:226,855,2489,588	*xywh-#5:226,855,2489,588	*xywh-#5:226,855,2489,588	*
4GGG/ 4GG	4ryy	4b-\ 4dd 4bb-	2.ryy	.
12e~>/L	2A\	2a^\ 2cc#X 2aa	.	.
12f~>/	.	.	.	.
12g~>/J	.	.	.	.
4f/	.	.	.	.
12AAA~/L 12AA	4ryy	4g/ 4gg	12cc#~>\L	.
12BBBn~/ 12BBn	.	.	12dd~>\	.
12CC#X~/J 12C#X	.	.	12ee~>\J	.
=52	=52	=52	=52	=52
4D/	4DD/	4f\ 4dd 4ff	2.ryy	.
12Bn~>/L	2E\	2e^>/ 2g#X 2ee	.	.
12c~>/	.	.	.	.
12d~>/J	.	.	.	.
4c/	.	.	.	.
12BBBn~/L 12BBn	4ryy	4g#/ 4dd	12d~<\L	.
12CC~/ 12C	.	.	12c~<\	.
12DD~/J 12D	.	.	12Bn~<\J	.
*v	*v	*	*	*
=53	=53	=53	=53
((4EE-X/ 4E-X	N(<(>[>4cc/	(4c\ 4a	.
*tuplet	*	*tuplet	*
!LO:TUP:b:problem=klamra łukowa	!LO:TUP:b:problem=klamra łukowa	!	!
6DD/)) 6D	12cc/L]	6d\) 6f#XN)	<
.	12b-/)	.	.
12CC/ 12C	12a/J	12e-X\ 12f#	.
4BBB-/ 4BB-	(>[<4d/ 4g [>4dd	2ryy	.
4GGG/ 4GG	8.d\L]) 8.b- 8.dd]	.	.
.	16b-\Jk 16dd 16bb-	.	[
=54	=54	=54	=54
4CC/ 4C	(4.a/ 4.aa	2cc\ 2ee	.
((4BBB-/ 4BB-	.	.	.
.	8g/ 8gg	.	.
4AAA/)) 4AA	4cc\) 4ff 4ccc	4ryy	.
4BBBn/ 4BBn	(4gg#X/	(8.ee^>\L 8.eee	.
.	.	16dd\Jk 16ddd	.
!!LO:LB:g=original
=55	=55	=55	=55
*xywh-#5:226,1444,2489,576	*xywh-#5:226,1444,2489,576	*xywh-#5:226,1444,2489,576	*
((4EE-X/ 4E-X	[>4ccc/)	(>(<4cc\) 4aa	.
*	*Xtuplet	*tuplet	*
!LO:TUP:b:problem=klamra łukowa	!LO:TUP:b:problem=klamra łukowa	!	!
6DD/)) 6D	12ccc/L]	6dd\)) 6ff#X	.
.	12bb-/	.	.
12CC/ 12C	12aa/J	12ee-X\ 12ff#	.
4BBB-/ 4BB-	4dd\ 4gg 4ddd	2ryy	.
4GGG/ 4GG	8.B-/L 8.d	.	.
.	16d/Jk 16g 16b-	.	.
=	=	=	=
4CC/ 4C	(4.c/ 4.a	2e\	.
4CCC/ 4CC	.	.	.
.	8B-/ 8g	.	.
4FFF/ 4FF	4A/) 4c 4f	4ryy	.
*	*v	*v	*
=56:|!	=56:|!	=56:|!
*>C	*>C	*
4r	8.F/L 8.f	p
.	16F/Jk 16f	.
=57	=57	=57
4r	((2.F/ 2.f	.
!	!	!LO:DY:b=2
4FF~/	.	f <
4GG~/	.	.
4AA~/ 4F	8.f\L)) 8.ff	.
.	16f\Jk 16ff	[[
=58	=58	=58
4BB-~>\ 4G	((2.f\ 2.ff	.
4C~>\ 4A	.	.
4D-X~>\ 4B-	.	.
4AA-X~>\ 4G-X 4c	8.ff\L)) 8.fff	.
.	16ff\Jk 16fff	.
!!LO:LB:g=original
=59||	=59||	=59||
*xywh-#5:241,2020,2474,552	*xywh-#5:241,2020,2474,552	*
*k[b-e-a-d-g-]	*k[b-e-a-d-g-]	*
!LO:TX:b:i:t=con Pedale	!LO:TX:a:t=Poco meno mosso.	!
4DD-/ 4D-	2.ff\ 2.fff	p
8.A-\L 8.d- 8.f	.	.
16A-\Jk 16d- 16f	.	.
4A-\ 4d- 4f	.	.
!	!LO:TX:b:i:t=molto espress.	!
4r	(8.ee-\L 8.eee-	.
.	16dd-\Jk 16ddd-	.
=60	=60	=60
4DD-/ 4D-	2.ff-X\) 2.fff-X	.
8.B--\L 8.d- 8.f-X	.	.
16B--\Jk 16d- 16f-	.	.
4B--\ 4d- 4f-	.	.
4r	(>8.ee-\L 8.eee-	.
.	16dd-\Jk 16ddd-	.
=61	=61	=61
4BBB--/ 4BB--	[2g-\) [2gg-	.
8.B--\L 8.d- 8.e-	.	.
16A-\Jk 16d- 16e-	.	.
4B--\ 4d- 4e-	8g-\L] 8gg-]	<
.	(8a-\ 8aa-	.
4G-\ 4d- 4e-	8.cc-X\ 8.ccc-X	.
.	16b--\Jk 16bb--	[[
=62	=62	=62
*^	*	*
*	*xywh-#5:241,2020,2474,552	*	*
4AAA-/ 4AA-	4ryy	2.a-\) 2.aa-	.
!	!	!	!LO:HP:b=2
(8.d-/L	2A-\ 2e-	.	>
16B-/Jk	.	.	.
4c/)	.	.	]
4A-'\ 4c 4e-	4ryy	(8.f\L 8.ff	>
.	.	16g-\Jk 16gg-	.
!!LO:LB:g=original
=63	=63	=63	=63
*xywh-#5:232,2533,2480,555	*xywh-#5:232,2533,2480,555	*xywh-#5:232,2533,2480,555	*
4DD-/ 4D-	4ryy	2.f\) 2.ff	]
!	!	!	!LO:HP:b=2
(8.A-/L	2.F\	.	<
16f/Jk	.	.	.
8.e-/L)	.	.	.
(16d-/K	.	.	[
8.c/)	.	(>(<4f\ 4ff	.
(16d-/Jk	.	.	.
=64	=64	=64	=64
*	*	*^	*^
*	*	*	*xywh-#5:232,2533,2480,555	*xywh-#5:232,2533,2480,555	*
4GG-/)	4ryy	2.bb-/)	([4b-\)	.	.
!	!	!	!	!LO:HP:a	!LO:HP:b=2
(4f/	2.G-\ 2.B-	.	8.b-\L]	<	>
.	.	.	16aa-\Jk	.	.
2e-/)	.	.	8.gg-\L	[	]
.	.	.	(16ff\K	.	.
.	.	4bb-/	8.ee-\)	.	.
.	.	.	(16dd-\Jk	.	.
*	*	*	*	*v	*v
*	*	*v	*v	*
=65	=65	=65	=65
4AAA-/ 4AA-	4ryy	2.cc\)) 2.ccc	.
!	!	!	!LO:HP:b=2
(8.e-/L	2.A-\	.	<
16b-/Jk	.	.	.
8.a-/L)	.	.	[
(16g-/K	.	.	.
8.f/)	.	(8.cc\L 8.ccc	.
(16e-/Jk	.	16gg-\Jk) 16ggg-	.
=66	=66	=66	=66
*	*	*^	*
*	*	*	*xywh-#5:232,2533,2480,555	*
4BB-/)	4ryy	4gg-\ (4ggg-	2.ryy	.
*clefG2	*	*	*	*
!	!	!	!	!LO:HP:b=2
(4a-/	2B-\ 2d-	2ff\) 2fff	.	>
4gn/)	.	.	.	]
(4en/	(4B-\	4ggnX/	(8.ee-\L 8.eee-	>
.	.	.	16dd-\Jk 16ddd-	]]
*	*	*v	*v	*
!!LO:LB:g=original
*clefF4	*	*	*
=67	=67	=67	=67
*xywh-#5:232,3088,2480,539	*xywh-#5:232,3088,2480,539	*xywh-#5:232,3088,2480,539	*
[2f/	(4A-\))	([4cc\) 4aa- [4ccc	.
*	*Xtuplet	*	*
.	12Gn\L	8.cc\L] 8.ccc]	>
.	12B-\	.	.
.	12d-\J	.	.
.	.	16b-\Jk 16bb-	.
8f/]	8c\)	4a-\) 4aa-	]
8r	8ryy	.	.
(4d-/	(4B-\	(8.gn^\L 8.ggn	.
.	.	16a-\Jk 16aa-	.
=68	=68	=68	=68
*	*	*^	*
*	*	*	*xywh-#5:232,3088,2480,539	*
([4c/)	4A-\)	4ff/)	2.f\	.
12c/L]	(4BB-\ &(<4Gn	(8.ee-/L	.	.
12d-/)	.	.	.	.
12B-'>/J	.	.	.	.
.	.	16dd-/Jk	.	.
4A-/&)	4C\)	4cc/)	.	.
(4C\ 4B-	4ryy	(8.gn/L	4en\	.
.	.	16a-/Jk	.	.
*v	*v	*	*	*
*	*v	*v	*
=69	=69	=69
8F\) 8A-	8f/)	.
8r	8r	.
!	!	!LO:DY:b=2
4FF~/	4r	f
4GGn~/	4r	.
4AA-X~/	8.f\L 8.ff	mf
.	16f\Jk 16ff	.
=70	=70	=70
4BB-~\ 4G-X	((2.f\ 2.ff	.
4C~\ 4A-	.	.
4D-~\ 4B-	.	.
4AA-~:\ 4G-: 4c:	8.ff\L)) 8.fff	.
.	16ff\Jk 16fff	.
=71	=71	=71
*	*^	*
*	*	*xywh-#5:232,3088,2480,539	*
!LO:TX:b:i:t=con Pedale	!	!	!
4DD-/ 4D-	2.ff/ 2.fff	4r	.
8.A-\L 8.d-	.	8.f\L 8.a-	p
16A-\Jk 16d-	.	16f\Jk 16a-	.
4A-\ 4d-	.	4f\ 4a-	.
!	!LO:TX:b:i:t=espr.	!	!
4r	((8.e-/L 8.ee-	4r	.
.	16d-/Jk 16dd-	.	.
!!LO:PB:g=original
=72	=72	=72	=72
*	*	*	*^
*xywh-#6:529,326,2483,563	*xywh-#6:529,326,2483,563	*xywh-#6:529,326,2483,563	*xywh-#6:529,326,2483,563	*
4DD-/ 4D-	2.f-X/)) 2.ff-X	4r	.	.
!	!	!	!LO:DY:a	!LO:DY:b=2
8.B--\L 8.f-X 8.b--	.	8.dd-\L 8.ff- 8.ddd-	p	p
16B--\Jk 16f- 16b--	.	16dd-\Jk 16ff- 16ddd-	.	.
4B--\ 4f- 4b--	.	4dd-\ 4ff- 4ddd-	.	.
4r	((8.e-/L 8.ee-	4r	.	.
.	16d-/Jk 16dd-	.	.	.
*	*	*	*v	*v
=73	=73	=73	=73
4BBB--/ 4BB--	[<2G-/)) [>2g-	4r	.
8.B--\L 8.d-	.	8.g-\L 8.dd- 8.gg-	.
16B--\Jk 16d-	.	16g-\Jk 16dd- 16gg-	.
!	!	!	!LO:HP:a
4B--\ 4d-	8G-/L] 8g-]	4g-\ 4dd- 4gg-	<
.	(8A-/ 8a-	.	.
4r	8.c-X/ 8.cc-X	4r	.
.	16B--/Jk 16b--	.	[[
=74	=74	=74	=74
4CC-X/ 4C-X	[<2A-/) [<2a-	4r	.
8.c-X\L 8.e-	.	8.cc-X\L 8.ee- 8.ccc-X	.
16c-\Jk 16e-	.	16cc-\Jk 16ee- 16ccc-	.
!	!	!	!LO:HP:a
4c-\ 4e-	8A-/L] 8a-]	4cc-\ 4ee- 4ccc-	>
.	(8G-/ 8g-	.	.
4r	8.A-/ 8.a-	4r	.
.	16B--/Jk 16b--	.	]]
*	*v	*v	*
!!LO:LB:g=original
=75	=75	=75
*^	*	*
*xywh-#6:501,890,2511,571	*xywh-#6:501,890,2511,571	*xywh-#6:501,890,2511,571	*
4FF-X/ 4F-X	4ryy	2.A-/) 2.a-	.
(8.c-X/L	2A-\	.	<
16g-/Jk	.	.	.
8.f-X/L)	.	.	[
(16e-/K	.	.	.
8.d-/)	4F-\	(4a-\ 4aa-	.
(16c-/Jk	.	.	.
=76	=76	=76	=76
*	*	*^	*
*	*	*	*xywh-#6:501,890,2511,571	*
!	!	!	!	!LO:HP:t=cresc. molto
4BB--\)	4ryy	2.ddd-/)	([4dd-\	<
*clefG2	*	*	*	*
!	!	!	!	!LO:HP:b=2
(4a-/	2B--\ 2d-	.	8.dd-\L]	>
.	.	.	16ccc-X\Jk	.
4g-/)	.	.	8.bb--\L)	]
.	.	.	(16aa-\K	.
4B--/ 4d- 4g-	4ryy	(4ddd-/	8.gg-\)	.
.	.	.	(16ff-X\Jk	.
*clefF4	*	*	*	*
=77	=77	=77	=77	=77
4C-X\	4ryy	2.ee-/)) [2.eee-	4r	.
*clefG2	*	*	*	*
(8.g-/L	2e-\	.	(4bb--\	<
16dd-/Jk	.	.	.	.
8.cc-X/L)	.	.	8aa-\)	[
.	.	.	8r	.
(16b--/K	.	.	.	.
8.a-/)	4c-X\	8.ee-\L 8.eee-]	4ryy	.
(16g-/Jk	.	16aa-\Jk 16aaa-	.	.
*clefF4	*	*	*	*
=78	=78	=78	=78	=78
4FF-X/)	4ryy	[2aaa-/	([4aa-\	.
!	!	!	!	!LO:HP:b=2
(4e-/	2F-X\ 2A-	.	8.aa-\L]	>
.	.	.	16ggg-\Jk	.
4d-/)	.	8.aaa-/L]	8.fff-X\)	]
.	.	(16gn/K 16ggn	16ryy	.
4FF-/ 4F-	4ryy	8.a-/) 8.aa-	4ryy	.
.	.	((16b-/Jk 16bb-	.	.
!!LO:LB:g=original
=79	=79	=79	=79	=79
*xywh-#6:501,1462,2519,553	*xywh-#6:501,1462,2519,553	*xywh-#6:501,1462,2519,553	*xywh-#6:501,1462,2519,553	*
!	!	!LO:TX:a:i:t=espress.	!	!
4EE-/ 4E-	4ryy	[2cc\)) [2ccc	2.ryy	.
!	!	!	!	!LO:HP:b=2
(8.c/L	2E-\ 2A-	.	.	<
16gn/Jk	.	.	.	.
4f/)	.	8.cc\L] 8.ccc]	.	[
.	.	(16b-\K 16bb-	.	.
4CC/ 4C	4ryy	8.a-\) 8.aa-	4een/	.
.	.	(16gn\Jk 16ggn	.	.
*	*	*v	*v	*
=80	=80	=80	=80
4DD-/ 4D-	4ryy	[2f\) [2ff	.
!	!	!	!LO:HP:b=2
(8.A-/L	2F\	.	<
16e-/Jk	.	.	.
*	*	*Xtuplet	*
4d-/)	.	12f\L] 12ff]	[ <
.	.	(12en\ 12een	.
.	.	12f\J 12ff	.
4F\ 4A- 4d-	4ryy	12gn\L 12ggn	.
.	.	12a-\ 12aa-	.
.	.	12cc\J 12ccc	[[
=81	=81	=81	=81
4BBB-/ 4BB-	2.ryy	4ee-\) 4eee-	.
!LO:TX:b:i:t=marcato	!	!	!LO:HP:b=2
8.BB-\L 8.F 8.d-	.	[4dd-\ [4ddd-	<
16An\Jk 16e- 16g-X	.	.	.
8B-\ 8d- 8f	.	8.dd-\L] 8.ddd-]	[
8r	.	.	.
.	.	16en\K 16een	.
8.B-/L	(<(<4D-\ [<4d-	8.f\ 8.ff	.
16A-X/Jk	.	16cc\Jk 16ccc	.
*v	*v	*	*
=82	=82	=82
*	*^	*
*	*	*xywh-#6:501,1462,2519,553	*
4E-\)) 4Gn 4d-]	4r	2b-\ 2bb-	>
4EE-/ 4E-	[<4ee-/	.	.
4A-\ 4c 4e-	4a-\ 4ee-] 4aa-	2ryy	]
4r	8.A-/L 8.a-	.	p
.	16A-/Jk 16a-	.	.
*	*v	*v	*
!!LO:LB:g=original
=83||	=83||	=83||
*ok[bnenandngnf#c#g#d#]	*ok[bnenandngnf#c#g#d#]	*
*k[f#c#g#d#]	*k[f#c#g#d#]	*
*^	*	*
*xywh-#6:532,2016,2488,550	*xywh-#6:532,2016,2488,550	*xywh-#6:532,2016,2488,550	*
8.r	4ryy	[2G#/ [2g#	.
(16D#/KL	.	.	.
8.GG#/)	[2.GG#\	.	.
(<16AA#X/Jk	.	.	.
(4BB#X/)	.	8G#/] 8g#]	.
.	.	16r	.
.	.	(16aa\KL	.
4C#/	.	8.ee\	.
.	.	16gg#\Jk	.
=84	=84	=84	=84
*	*	*^	*
*	*	*	*xywh-#6:532,2016,2488,550	*
4D#/	2.GG#\]	4ff#/)	8.r	.
.	.	.	(16dd#\KL	.
4F#/	.	(8.ee/L	8.a#X\	<
.	.	16dd#/Jk	16b#X\Jk	.
8E/)	.	4cc#/)	8.cc#\L)	.
8r	.	.	.	.
.	.	.	(16g#\K	.
(4E/	(4FF##X\	(8.bn/L	8.c#\	.
.	.	16an/Jk	16d#\Jk	[
=85	=85	=85	=85	=85
8D#/)	8GG#\)	8B#X/)) 8g#	2.ryy	.
16r	2.ryy	8r	.	.
(16d#\KL	.	.	.	.
8.G#\)	.	4r	.	.
(16A#X\Jk	.	.	.	.
4B#X\)	.	8.r	.	.
.	.	(>16aan/KL	.	p
(>(<4F#\ 4cn 4e	.	8.ee/	[4an\	.
.	8ryy	.	.	.
.	.	16gg#/Jk)	.	.
=86	=86	=86	=86	=86
8.d#/L)	4B\)	(4gg#/	2.a\]	.
(16b/Jk	.	.	.	.
8.d#/L)	4r	8.ff#/L)	.	.
(16e/Jk	.	(16ee/Jk	.	.
4f#/)	8.r	[4dd#/	.	.
.	(16B\KL	.	.	.
4A#X/	8.E\)	8.dd#/L]	(<(<4e\ 4gn	.
.	(16Gn\Jk	16cc#/Jk	.	.
*v	*v	*	*	*
!!LO:LB:g=original
=87	=87	=87	=87
*xywh-#6:532,2567,2522,516	*xywh-#6:532,2567,2522,516	*xywh-#6:532,2567,2522,516	*
8BB/L) 8F#	8b/)	8d#\)) 8f#	.
16r	8r	2.ryy	.
*clefG2	*	*	*
(16f#/K	.	.	.
8.B/)	4r	.	.
(16c#/Jk	.	.	.
8d#/)	8.r	.	.
8r	.	.	.
!	!LO:TX:b:t=cresc. _ _ _:ext=ud:problem=dynamics with extention lines	!	!LO:HP:t=cresc. _ _ _:ext=ud
.	(16bb\KL	.	<
((4B^/ 4c# 4e#X	8.cc#\)	.	.
.	.	8ryy	.
.	16cc#\Jk 16ccc#	.	.
*	*v	*v	*
=88	=88	=88
8.A#X/L)) 8.c# 8.f##X	[4cc#\ [4ccc#	.
(16A#X/K 16a#X	.	.
8.D#/) 8.d#	8cc#\] 8ccc#]	.
.	8r	.
(16E#X/Jk 16e#X	.	.
!LO:SIC:v:n=2:s=8F##/)	!	!
8F#/) 8f##	8.r	.
8r	.	.
.	(16ccc#\KL	.
((4c#/ 4d# 4a#	8.dd#\)	.
.	16dd#\Jk 16ddd#	.
=89	=89	=89
8.B#X/L)) 8.d# 8.an	[4dd#\ [4ddd#	.
(16d#/K	.	.
8.F#/) 8.f#	8dd#\] 8ddd#]	.
.	8r	.
16G#/Jk 16g#	.	.
8A/ 8a	8.r	.
8r	.	.
.	(16fff#\KL	.
(4cn/ 4e [4a	8.ff#\)	.
.	16ff#\Jk 16fff#	[[
=90	=90	=90
8.B/L) 8.d# 8.a]	[4ff#\ [4fff#	.
(16A/K 16a	.	.
8.D#/) 8.d#	8ff#\] 8fff#]	.
.	8r	.
(16E/Jk 16e	.	.
8F#/) 8f#	8.r	.
8r	.	.
.	(16fff#\KL	.
(<(<4A/ 4c#X [>4f#	8.ff#\)	.
.	16ff#\Jk 16fff#	.
!!LO:LB:g=original
=91	=91	=91
*xywh-#6:521,3084,2532,571	*xywh-#6:521,3084,2532,571	*
8G#/)) 8B#X 8f#]	[4ff#\ [4fff#	.
8r	.	.
*clefF4	*	*
((4GGG#/ 4GG#	8ff#\] 8fff#]	.
.	8r	.
4AAA#X/)) 4AA#X	8.r	.
.	[16ff#\	.
(>4BB#X\ 4G#	[<4f#\ 4ff#_>	.
=92	=92	=92
4C#\ 4A	8.f#\L] 8.ff#]	.
.	(<[>16fff#\Jk	<
4C##X\ 4A#X	[4ff#\) 4fff#_	.
4D#\) 4B	8.ff#\L] 8.fff#]	.
.	([16fff#\	.
4GG#:\ 4D#: 4B#X:	8.ff#\) 8.fff#]	.
.	16ff#\Jk 16fff#	[
=93||	=93||	=93||
*ok[fncngndnb-e-a-d-g-]	*ok[fncngndnb-e-a-d-g-]	*
*k[b-e-a-d-g-]	*k[b-e-a-d-g-]	*
!	!LO:TX:b:i:t=con gran espress.	!
4DD-/ 4D-	2.ff\ 2.fff	p
!	!	!LO:DY:b=2
8.A-\L 8.d- 8.f	.	p
16A-\Jk 16d- 16f	.	.
4A-\ 4d- 4f	.	.
4r	(8.ee-\L 8.eee-	.
.	16dd-\Jk 16ddd-	.
=94	=94	=94
4DD-/ 4D-	2.ff-X\) 2.fff-X	.
8.B--\L 8.d- 8.f-X	.	.
16B--\Jk 16d- 16f-	.	.
4B--\ 4d- 4f-	.	.
4r	(8.ee-\L 8.eee-	.
.	16dd-\Jk 16ddd-	.
!!LO:PB:g=original
=95	=95	=95
*xywh-#7:167,288,2490,568	*xywh-#7:167,288,2490,568	*
4BBB--/ 4BB--	[2g-\) [2gg-	.
8.B--\L 8.d- 8.e-	.	.
16A-\Jk 16d- 16e-	.	.
4B--\ 4d- 4e-	8g-\L] 8gg-]	.
!	!	!LO:HP:a
.	(8a-\ 8aa-	<
4G-^\ 4d- 4e-	8.cc-X\ 8.ccc-X	.
.	16b--\Jk 16bb--	.
=96	=96	=96
*^	*	*
*	*xywh-#7:167,288,2490,568	*	*
4AAA-/ 4AA-	4ryy	2.a-\) 2.aa-	[
(8.d-/L	2A-\ 2e-	.	.
16B-/Jk	.	.	.
4c/)	.	.	.
4A-\ 4c 4e-	4ryy	(8.f\L 8.ff	.
.	.	16g-\Jk 16gg-	>
=97	=97	=97	=97
4DD-/ 4D-	4ryy	2.f\) 2.ff	]
!	!	!	!LO:HP:b=2
(8.A-/L	2F\	.	<
16f/Jk	.	.	.
8.e-/L)	.	.	.
(16d-/K	.	.	.
8.c/)	4ryy	(4f\ 4ff	[
16d-/Jk	.	.	.
=98	=98	=98	=98
*	*	*^	*
*	*	*	*xywh-#7:167,288,2490,568	*
!	!	!	!	!LO:HP:t=cresc. molto
4GG-/ 4G-	4ryy	2bb-/)	(>[>4b-\	<
!	!	!	!	!LO:HP:b=2
(4f/	2G-\ 2B-	.	8.b-\L]	>
.	.	.	16aa-\Jk	.
4e-/)	.	4ryy	8.gg-\L)	.
.	.	.	(<16ff\K	]
4r	4ryy	(4bb-/	8.ee-\)	.
.	.	.	(<16dd-\Jk	.
*	*	*v	*v	*
!!LO:LB:g=original
=99	=99	=99	=99
*xywh-#7:197,857,2460,568	*xywh-#7:197,857,2460,568	*xywh-#7:197,857,2460,568	*
4AAA-/ 4AA-	4ryy	2.cc\)) 2.ccc	.
(8.e-/L	2A-\	.	.
16b-/Jk	.	.	.
8.a-/L)	.	.	.
(16g-/K	.	.	.
8.f/)	4A-\	8.cc\L 8.ccc	<
(16e-/Jk	.	16gg-\Jk 16ggg-	.
=100	=100	=100	=100
4BBB-/) 4BB-/	4ryy	((4gg-\ 4ggg-	.
(4a-/	2B-\ 2d-	2ff\)) 2fff	[
4gn/)	.	.	.
4An\ 4c#X 4g	4ryy	((4ee#X\ 4eee#X	.
*v	*v	*	*
=101	=101	=101
4DDn/ 4Dn	((2.ff#X\)) 2.fff#X	ff
*Xtuplet	*	*
12An\L 12dn 12f#X 12an	.	.
12A\ 12d 12f# 12a	.	.
12A\J 12d 12f# 12a	.	.
4A\ 4d 4f# 4a	.	.
4r	8.een\L)) 8.eeen	.
.	16ddn\Jk 16dddn	.
=102	=102	=102
4AAAn/ 4AAn	((2.een\ 2.eeen	.
8.An\L 8.dn 8.gn	.	.
16A\Jk 16Bn 16g	.	.
4A\ 4c#X 4g	.	>
4r	8.ddn\L)) 8.dddn	.
.	16cc#X\Jk 16ccc#X	]]
!!LO:LB:g=original
=103	=103	=103
*xywh-#7:197,1425,2475,535	*xywh-#7:197,1425,2475,535	*
4AAA-X/ 4AA-X	((2.ffn\ 2.fffn	pp
12A-X\L 12d-X 12fn 12a-X	.	.
12A-\ 12d- 12f 12a-	.	.
12A-\J 12d- 12f 12a-	.	.
4A-\ 4d- 4f 4a-	.	.
4r	8.ee-X\L)) 8.eee-X	.
.	16dd-X\Jk 16ddd-X	.
=104	=104	=104
4BBB--/ 4BB--	[2g-\ [2gg-	.
8.B--\L 8.d- 8.e-	.	.
16A-\Jk 16d- 16e-	.	.
4B--\ 4d- 4e-	8g-\L] 8gg-]	<
.	(8a-\ 8aa-	.
4G-\ 4d- 4e-	8.cc-X\ 8.ccc-X	.
.	16b--\Jk 16bb--	.
=105	=105	=105
*	*^	*
*	*	*xywh-#7:197,1425,2475,535	*
4AAA-/ 4AA-	([4aa-/)	4a-\	[
*	*Xtuplet	*	*
(4A-\ 4dn	12aa-/L]	(4cc-X\	<
.	12gg-/)	.	.
.	12ff/J	.	.
4G-\) 4e-	4bb-/	4b-\)	.
&(<4E-\ 4B-	(8.b-/L	4g-\	.
.	16gg-/Jk	.	[[
=106	=106	=106	=106
*^	*	*	*
*	*xywh-#7:197,1425,2475,535	*	*	*
(2c/	4A-\&)	4.ff/	4a-\	<
.	4G-\	.	4b--\	.
.	.	8ee-/	.	.
4d-/)	4F\	4dd-/)	4a-\	.
(4En/	(4GGn\	(8.cc/L	[4d-\	sfz
!	!	!LO:SIC:v:s=16b-/Jk	!	!
.	.	16b--/Jk	.	.
!!LO:LB:g=original
=107	=107	=107	=107	=107
*xywh-#7:117,1961,2555,515	*xywh-#7:117,1961,2555,515	*xywh-#7:117,1961,2555,515	*xywh-#7:117,1961,2555,515	*
4F/)	(2AA-\)	([4a-/)	4d-\]	.
(4Dn/	.	12a-/L]	(4c-X\	.
.	.	12g-/)	.	.
.	.	12f/J	.	.
4E-/)	4GG-\)	4b-/	4B-\)	.
4r	4ryy	(>8.B-/L	4ryy	p
.	.	16f/Jk	.	.
*v	*v	*	*	*
=108	=108	=108	=108
*	*	*^	*
*	*	*	*xywh-#7:117,1961,2555,515	*
4r	(2e-/)	4r	2ryy	.
4AAA-/ 4AA-	.	(2G-\ 2c	.	.
8DD-/ 8D-	8d-/)	.	8F\) 8A-	.
8r	8r	.	4.ryy	.
4r	8.d-/L 8.dd-	4ryy	.	p
.	16d-/Jk 16dd-	.	.	.
*	*v	*v	*v	*
=109	=109	=109
*^	*	*
*	*xywh-#7:117,1961,2555,515	*	*
8.r	4ryy	[2d-/ [2dd-	.
!	!	!	!LO:DY:rj
(>16AA-/KL	.	.	p
8.DD-/)	[2.DD-\	.	.
(16EE-/Jk	.	.	.
4FF/)	.	8d-/L] 8dd-]	.
.	.	16r	.
.	.	(16e--/K 16ee--	.
(4GG-/	.	8.b--/)	.
.	.	16d-/Jk 16dd-	.
=110	=110	=110	=110
*	*	*^	*
*	*	*	*xywh-#7:117,1961,2555,515	*
4AA-/	2DD-\_	(4c-X/ 4cc-X	8.r	.
.	.	.	(16a-\KL	<
4C-X/	.	8.b--/L	8.B--\ 8.e-	.
.	.	16a-/Jk	16A-\Jk 16f	.
8BB--/)	8DD-\]	8B--/)) 8d- 8g-	4ryy	.
8r	4.ryy	16r	.	[
.	.	(>16d-/KL	.	>
((4Cn\ 4G-	.	8.f-X/	(4B--\	.
.	.	16e--/Jk	.	.
*	*	*v	*v	*
!!LO:LB:g=original
=111	=111	=111	=111
*xywh-#7:117,2476,2522,547	*xywh-#7:117,2476,2522,547	*xywh-#7:117,2476,2522,547	*
8D-\)) 8F	4ryy	8A-/)) 8d-	]
16r	.	8r	p
(>16A-/KL	.	.	.
8.D-/)	[2.D-\	[4d-/ [4dd-	.
(>16E-/Jk	.	.	.
4F/)	.	8d-/] 8dd-]	.
.	.	16r	.
.	.	(16ee--\KL 16eee--	.
(4G-/	.	8.bb--\	<
.	.	16dd-\Jk 16ddd-	.
=112	=112	=112	=112
*	*	*^	*
*	*	*	*xywh-#7:117,2476,2522,547	*
4A-/	2D-\_	4cc-X/) 4ccc-X	8.r	.
.	.	.	(>16aa-\KL	.
4c-X/	.	8.ee-/L 8.bb--	8.b--\	.
.	.	16ff/Jk 16aa-	16a-\Jk	.
8B--/)	8D-\]	8.b--/L) 8.dd- 8.gg-	4ryy	[
8r	4.ryy	.	.	.
.	.	(>16dd-/K	.	.
*clefG2	*	*	*	*
((4cn/ 4g-	.	8.ff-X/	4b--\	.
.	.	16ee--/Jk	.	.
=113	=113	=113	=113	=113
8d-/)) 8f	4ryy	8dd-/)	8a-\	.
16r	.	8r	2ryy	p
*clefF4	*	*	*	*
(>16AA-/KL	.	.	.	.
*	*	*clefF4	*	*
8.DD-/	[2.DD-\	[4D-^\ [4d-	.	.
16EE-/Jk	.	.	.	.
4FF/)	.	8.D-\L] 8.d-]	.	.
.	.	.	8ryy	.
.	.	(16B--\Jk	.	.
(8.BB--/L	.	8.D-/L	4D-\	.
16GG-/Jk	.	16E-/Jk	.	.
!!LO:LB:g=original
=114	=114	=114	=114	=114
*xywh-#7:137,3024,2502,535	*xywh-#7:137,3024,2502,535	*xywh-#7:137,3024,2502,535	*xywh-#7:137,3024,2502,535	*
8DD-/]) 8AA-	4ryy	8F/)	8D-\	.
16r	.	8r	2.ryy	.
(>16A-/KL	.	.	.	.
*	*	*clefG2	*	*
8.D-/	[2.D-\	[4d-/ [4dd-	.	.
16E-/Jk	.	.	.	.
4F/)	.	8.d-/L] 8.dd-]	.	.
.	.	(>16b--/K	.	.
(8.B--/L	.	8.d-/	.	.
.	.	.	8ryy	.
16G-/Jk	.	(16e-/Jk	.	.
*	*	*v	*v	*
=115	=115	=115	=115
8A-/L)	8D-\]	8d-/)) 8f	.
16r	8ryy	8r	.
*clefG2	*	*	*
(>16a-/Jk	.	.	.
8.d-/L	[4d-\	4r	.
16e-/Jk	.	.	.
[2f/)	2d-\_	8.r	.
.	.	(16bb--\KL	<
.	.	8.b--\)	.
.	.	(16cc-X\Jk	[[
=116	=116	=116	=116
8f/]	8d-\]	8dd-\)	.
16r	2.ryy	16r	.
*clefF4	*	*	*
(16An/KL	.	(16an/KL	<
8.AAn/)	.	8.An/)	.
(16BBn/Jk	.	(16Bn/Jk	.
4C#X/)	.	4c#X/)	.
4AAAn/ 4AA	.	4A'/ 4c# 4en	p
.	8ryy	.	.
*v	*v	*	*
!!LO:PB:g=original
=117||	=117||	=117||
*xywh-#8:431,350,2463,553	*xywh-#8:431,350,2463,553	*
*ok[enandngnb-]	*ok[enandngnb-]	*
*k[b-]	*k[b-]	*
2.DD/ 2.D	2.A/ 2.d 2.f	.
4AAA'/ 4AA	4A'/ 4c 4e	.
=118	=118	=118
4BBB-/ 4BB-	4F/ 4B- 4d	.
(2AAA^/ 2AA	2F^/ 2c	.
8.GG#X/L)	8.F/L 8.Bn	.
16BB-/Jk	16F/Jk 16d	.
=119	=119	=119
*^	*^	*
*	*xywh-#8:431,350,2463,553	*xywh-#8:431,350,2463,553	*	*
4r	2AA\	(>2F/ 2c	2ryy	.
12C/L	.	.	.	.
12C/	.	.	.	.
12C/J	.	.	.	.
[2C/	(2FFT\	4.e/	2A\	<
.	.	8d/	.	.
.	16qqEE\LL	.	.	.
.	16qqFF\JJ	.	.	[
=120	=120	=120	=120	=120
4C/]	2.EE\)	2.G/) 2.c	2.ryy	.
12C/L	.	.	.	.
12C/	.	.	.	.
12C/J	.	.	.	.
[2C/	.	.	.	.
.	(4BB-\	8.c/L	(4E\	p
.	.	16c/Jk	.	.
!!LO:LB:g=original
=121	=121	=121	=121	=121
*xywh-#8:355,904,2539,474	*xywh-#8:355,904,2539,474	*xywh-#8:355,904,2539,474	*xywh-#8:355,904,2539,474	*
4C/]	(2AA\)	(>[<2c/	[<2F\)	.
12C/L	.	.	.	<
12C/	.	.	.	.
12C/J	.	.	.	.
[2C/	4AA-X\)	(>4d/)	4F\] 4c_>	.
.	8.GG\L	8.e/L)	8.B-\L 8.c]	[
.	16FF\Jk	16f/Jk	16A\Jk 16c	.
*	*	*v	*v	*
=122	=122	=122	=122
4C/]	2.EE\	4G/ 4c 4g	.
12C/L	.	2G/ 2c^/	.
12C/	.	.	.
12C/J	.	.	.
[2C/	.	.	.
.	[4BB-\	(>4E/ 4c	.
=123	=123	=123	=123
*	*	*^	*
*	*	*	*xywh-#8:355,904,2539,474	*
(2.C/]	(4BB-\]	4.d/)	(2F\	.
.	4AA\	.	.	<
.	.	(8d/	.	.
.	8.GG\L)	4e/	4G\)	.
.	16BB-\K	.	.	.
8E-X/L)	8.AA\	8.c/L) 8.f#X	4ryy	[
8E-/J	.	.	.	.
.	16GG\Jk	16c/Jk 16g	.	.
*	*	*v	*v	*
=124	=124	=124	=124
4D/	2.FF#X\	4c/ 4a	.
*Xtuplet	*	*	*
12D/L	.	2c/ 2d	.
12D/	.	.	.
12D/J	.	.	.
4D/	.	.	.
4D/	4FF#\	(>4A/ 4c 4d	<
*v	*v	*	*
!!LO:LB:g=original
=125	=125	=125
*	*^	*
*	*	*^	*
*xywh-#8:355,1379,2603,581	*xywh-#8:355,1379,2603,581	*xywh-#8:355,1379,2603,581	*xywh-#8:355,1379,2603,581	*
4GG'/ 4D	4B-/) 4d 4b-	2.ryy	4ryy	.
2AAA/ 2AA	2c#X/ 2a^	.	2.A\	[
8.BBBn/L 8.BBn	(4g/	8.d\L	.	.
16CC#X/Jk 16C#X	.	16e\Jk	.	.
*	*	*v	*v	*
=126	=126	=126	=126
*^	*	*	*
*	*xywh-#8:355,1379,2603,581	*	*	*
4DD/ 4D	4ryy	4A/) 4f	2.ryy	.
[2.E/	2EE\	2G#X/ 2e	.	.
.	8.FF#X\L	(>4d/	8.A\L	.
.	16GG#X\Jk	.	16Bn\Jk	.
=127	=127	=127	=127	=127
4E/]	4AA\	[>4c#X/)	4A\	.
*	*	*Xtuplet	*	*
(4FF/ (4F/	2ryy	12c#/L]	(<4A\	.
.	.	(>12Bn/	.	.
.	.	12c#/J	.	.
4EE/) 4E/)	.	[2e/)	4G#X\)	.
8.F#X/L	[4EEE\ [4EE	.	&(<4d\	.
16A/Jk	.	.	.	.
=128	=128	=128	=128	=128
*	*^	*	*	*
*	*	*xywh-#8:355,1379,2603,581	*	*	*
2G#X/	4EEE\] 4EE]	4ryy	2e/_	4.c#X\	>
.	(4D/	4EE\ 4E	.	.	.
.	.	.	.	8Bn\	.
8C#X/)	8AAA\ 8AA	2ryy	8e/]	8A\&)	.
8r	8ryy	.	8r	4.ryy	]
*	*	*	*8va	*	*
4AA'\ 4A	4ryy	.	4ee'/ 4aa 4ccc#X 4eee	.	ff
*v	*v	*v	*	*	*
*	*v	*v	*
=129	=129	=129
2.DD/ 2.D	2.ff\ 2.aa 2.ddd 2.fff	.
4AAA'/ 4AA	4ee'/ 4aa 4cccn 4eee	.
!!LO:LB:g=original
=130	=130	=130
*xywh-#8:348,1960,2610,523	*xywh-#8:348,1960,2610,523	*
4BBB-'/ 4BB-	4dd'/ 4ff 4bb- 4ddd	.
((2AAA^/ 2AA	((2cc^/ 2ff 2ccc	.
8.GGG#X/L)) 8.GG#X	8.bn/L)) 8.ff 8.bbn	.
16BBB-/Jk 16BB-	16dd/Jk 16ff 16ddd	.
=131	=131	=131
*^	*^	*
*	*xywh-#8:348,1960,2610,523	*xywh-#8:348,1960,2610,523	*	*
2AAA/ 2AA	2ryy	2cc/ 2ff 2ccc	2ryy	.
[2BB-/	(2FFT\	(>(<2dd/ 2ddd	(>2aa-XT\	<
.	16qqEE-X\LL	.	16qqgg\LL	.
.	16qqFF\JJ	.	16qqaa-\JJ	.
=132	=132	=132	=132	=132
4BB-/]	4EE-X\)	4ee-X/))) 4gg 4eee-X	4ryy	[
*v	*v	*	*	*
*	*v	*v	*
*	*X8va	*
*^	*^	*
*	*xywh-#8:348,1960,2610,523	*xywh-#8:348,1960,2610,523	*	*
(8.G/L	2E-X\	(<8.b-\L	2d-X^>/ 2dd-X	.
16A-X/Jk	.	16a-X\Jk	.	.
4B-/)	.	4g\)	.	.
(4EEn/ (4En/	4ryy	[<4c/ [>4cc	8.a-\L	.
.	.	.	16b-\Jk	.
*	*	*v	*v	*
=133	=133	=133	=133
4FF/) 4F/)	4ryy	4c/] 4a-X 4cc]	.
8.C/L	(2AA-X\	(>(<(<4c/ 4f 4cc	<
16C/Jk	.	.	.
[4C/	.	((4d/))) [<4cc 4dd	.
8.C/L]	8.GG\L)	8.e/L)) 8.cc] 8.ee	.
16C/Jk	16FF\Jk	16f/Jk 16cc 16ff	[[
!!LO:LB:g=original
=134	=134	=134	=134
*	*	*^	*
*xywh-#8:348,2484,2557,523	*xywh-#8:348,2484,2557,523	*xywh-#8:348,2484,2557,523	*xywh-#8:348,2484,2557,523	*
4C/	4EE/	4g\ 4cc 4gg	4ryy	.
(8.G/L	2E\	(<8.b-\L	(>&(<2d-X^>/ 2dd-X	.
16A-X/Jk	.	16a-X\Jk	.	.
4B-/)	.	4g\)	.	.
4E-X/	4EE-X/	8.c#X/L)&) 8.g 8.b- 8.cc#X	4ryy	.
.	.	16c#/Jk 16g 16b- 16cc#	.	.
*v	*v	*	*	*
*	*v	*v	*
=135	=135	=135
4.DD/ 4.D	4d/ 4g 4b- 4dd	.
.	((4d/ 4g 4b- 4dd	.
8CC/ 8C	.	.
((4BBB-/ 4BB-	((4e/)) 4g 4cc 4ee	.
8.AAA/L)) 8.AA	8.f#X\L)) 8.cc 8.ee-X 8.ff#X	.
16GGG/Jk 16GG	16g\Jk 16cc 16ee- 16gg	.
=136	=136	=136
*^	*^	*
*	*xywh-#8:348,2484,2557,523	*xywh-#8:348,2484,2557,523	*	*
4FFF#X/ 4FF#X	4ryy	4a\ 4cc 4ee-X 4aa	4ryy	.
(8.A/L	2F#X\	(<8.cc\L	[<2e-X^>/ [>2ee-X	.
16B-/Jk	.	16b-\Jk	.	.
4c/)	.	4a\)	.	.
4FFF#/ 4FF#	4ryy	8.e-\L] 8.cc 8.ee-]	4ryy	.
.	.	16cc\Jk 16ee- 16ccc	.	ff
=137	=137	=137	=137	=137
4GGG/ 4GG/	4ryy	4b-\ 4dd 4bb-	2.ryy	.
12e~>/L	2A\	2a^\ 2cc#X 2aa	.	.
12f~>/	.	.	.	.
12g~>/J	.	.	.	.
4f/	.	.	.	.
12AAA~</L 12AA	4ryy	(4g/ 4gg	12cc#X~>\L	.
12BBBn~</ 12BBn	.	.	12dd~>\	.
12CC#X~</J 12C#X	.	.	12ee~>\J	.
!!LO:LB:g=original
=138	=138	=138	=138	=138
*xywh-#8:315,3007,2590,584	*xywh-#8:315,3007,2590,584	*xywh-#8:315,3007,2590,584	*xywh-#8:315,3007,2590,584	*
4DD/ 4D	4ryy	4f\) 4dd 4ff	2.ryy	.
12Bn~>/L	2E\	2e^>/ 2g#X 2ee	.	.
12c~>/	.	.	.	.
12d~>/J	.	.	.	.
4c/	.	.	.	.
12BBBn~</L 12BBn	4ryy	4g#/ 4dd	12d~<\L	.
12CC~</ 12C	.	.	12c~<\	.
12DD~</J 12D	.	.	12Bn~<\J	.
*v	*v	*	*	*
=139	=139	=139	=139
4EE-X/ 4E-X	(>[>4cc/	(<(<4c\ 4a	.
*tuplet	*Xtuplet	*tuplet	*
!LO:TUP:b:problem=klamra łukowa	!LO:TUP:b:problem=klamra łukowa	!	!
6DD/ 6D	12cc/L]	6d\)) 6f#X	.
.	12b-/)	.	.
12CC/ 12C	12a/J	12e-X\ 12f#	.
4BBB-/ 4BB-	(<[<4d/ 4g [>4dd	2ryy	.
4GGG/ 4GG	8.d/L]) 8.b- 8.dd]	.	.
.	16b-/Jk 16dd 16bb-	.	.
=140	=140	=140	=140
4CC/ 4C	2cc/ 2ee	(>4.a\ 4.aa	.
((4BBB-/ 4BB-	.	.	.
.	.	8g\ 8gg	.
4AAA/)) 4AA	4ryy	4cc\) 4ff 4ccc	.
((4BBBn/ 4BBn	8.ee^\L 8.eee	(>(<4gg#X/	.
.	16dd\Jk 16ddd	.	.
=141	=141	=141	=141
4EE-X/)) 4E-X	(>[>4ccc/)	(>(<4cc\) 4aa	.
*tuplet	*Xtuplet	*tuplet	*
!LO:TUP:b:problem=klamra łukowa	!	!	!
6DD/ 6D	12ccc/L]	6dd\)) 6ff#X	.
.	12bb-/)	.	.
12CC/ 12C	12aa'/J	12ee-X\ 12ff#	.
4BBB-/ 4BB-	4dd\ 4gg 4ddd	2ryy	.
4GGG/ 4GG	8.B-/L 8.d	.	.
.	16d/Jk 16g 16b-	.	.
!!LO:PB:g=original
=142	=142	=142	=142
*	*	*^	*
*xywh-#9:329,370,2430,540	*xywh-#9:329,370,2430,540	*xywh-#9:329,370,2430,540	*xywh-#9:329,370,2430,540	*
4CC/ 4C	(>4.a/	(2e\	4c\	.
4CCC/ 4CC	.	.	4B-\	.
.	8g/	.	.	.
8FFF/ 8FF	8A/)) 8c 8f	2ryy	2ryy	.
8r	8r	.	.	.
4r	8.F/L 8.f	.	.	.
.	16F/Jk 16f	.	.	.
*	*v	*v	*v	*
=143	=143	=143
*^	*	*
*	*xywh-#9:329,370,2430,540	*	*
2rF	4r	8F/ 8f	.
.	.	8r	.
*	*	*tremolo	*
.	4FF~<\	32ff\LLL	.
.	.	32f\	.
.	.	32ff\	.
.	.	32f\	.
.	.	32ff\	.
.	.	32f\	.
.	.	32ff\	.
.	.	32f\	.
4r	4GG~<\	32ff\	.
.	.	32f\	.
.	.	32ff\	.
.	.	32f\	.
.	.	32ff\	.
.	.	32f\	.
.	.	32ff\	.
.	.	32f\	.
!	!	!LO:TX:b:t=cresc. _ _ _:ext=ud:problem=dynamics with extention lines	!LO:HP:t=cresc. _ _ _:ext=ud
4F~>/	4AA~<\	32ff\	<
.	.	32f\	.
.	.	32ff\	.
.	.	32f\	.
.	.	32ff\	.
.	.	32f\	.
.	.	32ff\	.
.	.	32f\JJJ	.
*v	*v	*	*
=144	=144	=144
4BB-~>\ 4G	32ff\LLL	.
.	32f\	.
.	32ff\	.
.	32f\	.
.	32ff\	.
.	32f\	.
.	32ff\	.
.	32f\	.
4C~>\ 4A	32ff\	.
.	32f\	.
.	32ff\	.
.	32f\	.
.	32ff\	.
.	32f\	.
.	32ff\	.
.	32f\JJJ	.
4D-X~>\ 4B-	32ff\LLL	.
.	32f\	.
.	32ff\	.
.	32f\	.
.	32ff\	.
.	32f\	.
.	32ff\	.
.	32f\	.
4AA:~>\ 4G-X: 4c:	32ff\	.
.	32f\	.
.	32ff\	.
.	32f\	.
.	32ff\	.
.	32f\	.
.	32ff\	.
.	32f\JJJ	.
*	*Xtremolo	*
=145	=145	=145
8BB-~>\ 8F 8d-X	8f\ 8ff	.
8r	8r	.
*	*tremolo	*
4d-~>\ 4e	32fff\LLL	.
.	32ff\	.
.	32fff\	.
.	32ff\	.
.	32fff\	.
.	32ff\	.
.	32fff\	.
.	32ff\	.
4c~>\ 4e-X 4f	32fff\	.
.	32ff\	.
.	32fff\	.
.	32ff\	.
.	32fff\	.
.	32ff\	.
.	32fff\	.
.	32ff\	.
4B-~>\ 4dn 4g	32fff\	.
.	32ff\	.
.	32fff\	.
.	32ff\	.
.	32fff\	.
.	32ff\	.
.	32fff\	.
.	32ff\JJJ	.
!!LO:LB:g=original
*clefG2	*	*
=146	=146	=146
*xywh-#9:312,911,2448,535	*xywh-#9:312,911,2448,535	*
8A/ 8c#X 8a	32fff\LLL	.
.	32ff\	.
.	32fff\	.
.	32ff\	.
8r	32fff\	.
.	32ff\	.
.	32fff\	.
.	32ff\	.
4G#X~<:/ 4d: 4f: 4bn:	32fff\	.
.	32ff\	.
.	32fff\	.
.	32ff\	.
.	32fff\	.
.	32ff\	.
.	32fff\	.
.	32ff\JJJ	.
4A~<:/ 4c#: 4f: 4cc:	32fff\LLL	.
.	32ff\	.
.	32fff\	.
.	32ff\	.
.	32fff\	.
.	32ff\	.
.	32fff\	.
.	32ff\	.
4Bn~<:/ 4f: 4a-X: 4dd:	32fff\	.
.	32ff\	.
.	32fff\	.
.	32ff\	.
.	32fff\	.
.	32ff\	.
.	32fff\	.
.	32ff\JJJ	.
*	*Xtremolo	*
=147	=147	=147
*	*^	*
*	*	*xywh-#9:312,911,2448,535	*
4c~</ 4f 4g 4cc	4ff\ 4fff	4ryy	.
*clefF4	*	*	*
2CC^/ 2C	(8.ee^\L 8.eee	2gg/ 2bb-	[ ff
.	16dd\Jk 16ddd	.	.
.	4cc\) 4ccc	.	.
(8.DD/L 8.D	(8.ff/L	4b-\ 4bb-	.
16EE/Jk 16E	16gg/Jk	.	.
=148	=148	=148	=148
*^	*	*	*
*	*xywh-#9:312,911,2448,535	*	*	*
4F/) 4FF	4ryy	4a\ 4ff 4aa	2.ryy	.
*Xtuplet	*	*	*	*
12d~/L	2G\	2g^\ 2bn 2gg	.	.
12e~/	.	.	.	.
12f~/J	.	.	.	.
4e/	.	.	.	.
8.AAA/L 8.AA	4ryy	(4f/ 4ff	8.cc\L	.
16BBBn/Jk 16BBn	.	.	16dd\Jk	.
=149	=149	=149	=149	=149
4CC/ 4C	4ryy	4e/) 4cc 4ee	2.ryy	.
12A~>/L	2D\	2d^>/ 2f#X 2dd	.	.
12B-~>/	.	.	.	.
12c~>/J	.	.	.	.
4B-/	.	.	.	.
8.EE/L 8.E	4ryy	(4c/ 4cc	8.g\L	.
16FF#X/Jk 16F#X	.	.	16a\Jk	.
*v	*v	*	*	*
*	*v	*v	*
!!LO:LB:g=original
=150	=150	=150
*xywh-#9:312,1446,2448,535	*xywh-#9:312,1446,2448,535	*
4GG/ 4G	4B-/) 4g 4b-	.
(8.AAA/L 8.AA	8.c/L 8.fn 8.a	.
16BBB-/Jk 16BB-	16B-/Jk 16d 16g	.
4CC/) 4C	4A/ [<4c (>4f	>
4CCC/ 4CC	8.G/L 8.c] 8.e)	.
.	16B-/Jk 16c 16g	]
=151	=151	=151
*^	*	*
*	*xywh-#9:312,1446,2448,535	*	*
8FFF/ 8FF	4ryy	8A/ 8c 8f	.
8r	.	8r	.
*	*	*tremolo	*
4r	4FF~<\	32ff\LLL	f
.	.	32f\	.
.	.	32ff\	.
.	.	32f\	.
.	.	32ff\	.
.	.	32f\	.
.	.	32ff\	.
.	.	32f\	.
4r	4GG~<\	32ff\	.
.	.	32f\	.
.	.	32ff\	.
.	.	32f\	.
.	.	32ff\	.
.	.	32f\	.
.	.	32ff\	.
.	.	32f\	.
!	!	!LO:TX:b:t=cresc. _ _ _:ext=ud:problem=dynamics with extention lines	!LO:HP:t=cresc. _ _ _:ext=ud
4F~>/	4AA~<\	32ff\	<
.	.	32f\	.
.	.	32ff\	.
.	.	32f\	.
.	.	32ff\	.
.	.	32f\	.
.	.	32ff\	.
.	.	32f\JJJ	.
*v	*v	*	*
=152	=152	=152
4BB-~>\ 4G	32ff\LLL	.
.	32f\	.
.	32ff\	.
.	32f\	.
.	32ff\	.
.	32f\	.
.	32ff\	.
.	32f\	.
4C~>\ 4A	32ff\	.
.	32f\	.
.	32ff\	.
.	32f\	.
.	32ff\	.
.	32f\	.
.	32ff\	.
.	32f\JJJ	.
4D-X~>\ 4B-	32ff\LLL	.
.	32f\	.
.	32ff\	.
.	32f\	.
.	32ff\	.
.	32f\	.
.	32ff\	.
.	32f\	.
4AA-X~>\ 4G-X 4c	32ff\	.
.	32f\	.
.	32ff\	.
.	32f\	.
.	32ff\	.
.	32f\	.
.	32ff\	.
.	32f\JJJ	.
*	*Xtremolo	*
=153	=153	=153
8D-X\ 8F 8d-X	8f\ 8ff	.
8r	8r	.
*clefG2	*	*
*	*tremolo	*
4d-X~</ 4en	32fff\LLL	.
.	32ff\	.
.	32fff\	.
.	32ff\	.
.	32fff\	.
.	32ff\	.
.	32fff\	.
.	32ff\	.
4c~</ 4e-X 4f	32fff\	.
.	32ff\	.
.	32fff\	.
.	32ff\	.
.	32fff\	.
.	32ff\	.
.	32fff\	.
.	32ff\	.
4B-~</ 4dn 4g	32fff\	.
.	32ff\	.
.	32fff\	.
.	32ff\	.
.	32fff\	.
.	32ff\	.
.	32fff\	.
.	32ff\JJJ	.
!!LO:LB:g=original
=154	=154	=154
*xywh-#9:312,1981,2448,548	*xywh-#9:312,1981,2448,548	*
4A~/ 4c#X 4a	32fff\LLL	.
.	32ff\	.
.	32fff\	.
.	32ff\	.
.	32fff\	.
.	32ff\	.
.	32fff\	.
.	32ff\	.
4G#X~:/ 4d: 4f: 4bn:	32fff\	.
.	32ff\	.
.	32fff\	.
.	32ff\	.
.	32fff\	.
.	32ff\	.
.	32fff\	.
.	32ff\JJJ	.
4A~:/ 4c#: 4f: 4cc:	32fff\LLL	.
.	32ff\	.
.	32fff\	.
.	32ff\	.
.	32fff\	.
.	32ff\	.
.	32fff\	.
.	32ff\	.
4Bn~:/ 4f: 4a-X: 4dd:	32fff\	.
.	32ff\	.
.	32fff\	.
.	32ff\	.
.	32fff\	.
.	32ff\	.
.	32fff\	.
.	32ff\JJJ	.
*	*Xtremolo	*
=155	=155	=155
*	*^	*
*	*	*xywh-#9:312,1981,2448,548	*
8c/ 8f 8g 8cc	8ff\ 8fff	4ryy	.
8r	8r	.	.
*clefF4	*	*	*
2CC^/ 2C	(8.ee^\L 8.eee	2gg/ 2bb-	[ ff
.	16dd\Jk 16ddd	.	.
.	4cc\) 4ccc	.	.
(8.DD/L 8.D	(8.ff/L	4b-\ 4bb-	.
16EE/Jk 16E	16gg/Jk	.	.
=156	=156	=156	=156
*^	*	*	*
*	*xywh-#9:312,1981,2448,548	*	*	*
4F/) 4FF	4ryy	4a\) 4ff 4aa	2.ryy	.
*Xtuplet	*	*	*	*
12e-X~>/L	2A-X\	2a-X^\ 2cc 2aa-X	.	.
12f~>/	.	.	.	.
12g-X~>/J	.	.	.	.
4f/	.	.	.	.
(8.BBB-/L 8.BB-	4ryy	(4g-X/ 4gg-X	8.dd-X\L	.
16CC/Jk 16C	.	.	16ee-X\Jk	.
=157	=157	=157	=157	=157
4DD-X/) 4D-X	4ryy	4f\) 4dd-X 4ff	2.ryy	.
12c~>/L	2F\	2f^>\ 2an 2ff	.	.
12d-X~>/	.	.	.	.
12e-X~>/J	.	.	.	.
4d-/	.	.	.	.
(8.GGG/L 8.GG	4ryy	(4e-X/ 4ee-X	8.b-\L	.
16AAA/Jk 16AA	.	.	16cc\Jk	.
*v	*v	*	*	*
!!LO:LB:g=original
=158	=158	=158	=158
*xywh-#9:312,2529,2440,530	*xywh-#9:312,2529,2440,530	*xywh-#9:312,2529,2440,530	*
4BBB-/) 4BB-	4d-X/) 4b- 4dd-X	4ryy	.
*	*Xtuplet	*	*
((4BBBn/ 4BBn	12en~>^>/L	(4d-\	.
.	12f~>/	.	.
.	12g~>/J	.	.
4CC/)) 4C	4f/ 4a	4c\)	.
4CCC/ 4CC	8.dn/L 8.f 8.b-	4ryy	.
.	16B-/Jk 16e 16g	.	.
*	*v	*v	*
=159	=159	=159
!	!LO:TX:a:i:t=poco più mosso	!
4FFF/ 4FF	4A/ 4c 4f	.
4r	12A/L 12a	f
.	12A/ 12a	.
.	12A/J 12a	.
4r	4A/ 4a	.
4AA'\ 4A	4e'/ 4a 4cc#X 4ee	ff
=160	=160	=160
4DD'/ 4D	4f'\ 4a 4dd 4ff	.
4BBBn'/ 4BBn	4g#X'\ 4dd 4ff 4gg#X	.
4CC'/ 4C	4a'\ 4ee 4aa	.
4DD'/ 4D	4bn'\ 4ff 4gg# 4bbn	.
=161	=161	=161
*^	*	*
*	*xywh-#9:312,2529,2440,530	*	*
4AAA'/ 4AA	4ryy	4cc'\ 4ee 4aa 4ccc	.
12C/L	4r	12c/L 12cc	.
12C/	.	12c/ 12cc	.
12C/J	.	12c/J 12cc	.
4C/	4r	4c/ 4cc	.
4AAA'/ 4AA	4ryy	4cc'\ 4ff 4ccc	.
*v	*v	*	*
!!LO:LB:g=original
=162	=162	=162
*xywh-#9:319,3060,2433,586	*xywh-#9:319,3060,2433,586	*
4BBB-'/ 4BB-	4dd'\ 4ff 4ddd	.
4GGG'/ 4GG	4ee'\ 4ddd-X 4eee	.
4AAA'/ 4AA	4ff'\ 4ddd- 4fff	.
4BBB-'/ 4BB-	4gg'\ 4ddd- 4eee 4ggg	.
=163	=163	=163
4FFF'/ 4FF	4aa'\ 4ccc 4fff 4aaa	.
*ped	*	*
12F\L 12f	4r	.
!LO:TX:b:i:t=più grave	!	!
12F\ 12f	.	.
12F\J 12f	.	.
4.F\ 4.f	[<2aa\ [<2ccc [>2fff [>2aaa	.
8F\ 8f	.	.
=164	=164	=164
4F\ 4f	4aa\] 4ccc] 4fff] 4aaa]	.
12FF/L 12F	2a\ 2cc 2ff 2aa	.
12FF/ 12F	.	.
12FF/J 12F	.	.
4.FF/ 4.F	.	.
.	[<4a\ [<4cc [>4ff [>4aa	.
8FF/ 8F	.	.
=165	=165	=165
4FF/ 4F	4a\] 4cc] 4ff] 4aa]	.
4r	4r	.
4.FFF/ 4.FF	4.A/ 4.c 4.f 4.a	.
8FFF/ 8FF	8A/ 8c 8f 8a	.
=166	=166	=166
2.FFF/ 2.FF	2.A/ 2.c 2.f 2.a	.
==	==	==
*-	*-	*-
!!!system-decoration: {(s1,s2)}
!!!RDF**kern: < = below
!!!RDF**kern: > = above
!!!RDF**kern: N = linked
!!!ENC: Filip Voros
!!!END: 2022-03-23
!!!ENC: Marta Chmielewska
!!!END: 2022-03-29
!!!ENC-iiif: Olaf Gawdzik
!!!END-iiif: 2022-09-14
